X:8308
T:Rodney's Glory
C:anon., arr. Phil Taylor
O:England?
H:Named for the eponymous admiral, best known in the UK for
H:his success against the Spanish at the battle of Corunna, and
H:in the USA for his failure to stop the war of independance by
H:bombarding various places on the East coast.  The Royal Navy
H:still marches to it.  Played as a set dance in Ireland.
N:Tuning DADGBE
R:March
F:http://abc.musicaviva.com/tunes/england/rodneys-glory/rodneys-glory-gtr2.abc
%Posted May 18th 2002 at abcusers by Phil Taylor
V:1 Program 1 25 up %Acoustic guitar
V:2 Program 1 25 merge down %Acoustic guitar
M:C|
L:1/8
K:ADor t=-12
[V:1] ed | c2Bc  AB (3cBA | BGEF G2 cd | (3efg ed cdef | gedf    edcB |
[V:2] D2 | A,2E,2 =F,2=F2 | G,2E,2G,2C2| B,2 E2 A,2 E2 | G,2D2 D,2 D2 |
%
[V:1] c2Bc AB (3cBA | BGEF  G2 ed | c{d}cBA GA (3BAG | A6         :|
[V:2] A,2E,2=F,2=F2 | G,2E,2G,2C2 | A,2  E2 G,2 D2   | D,2 D2 D,2 :|
%
[V:1] cd | eaab aged | (3efg ed c2 A2 | (3gag fg agec | dcAF (3GAG FG |
[V:2] A,2| A,2E2A,2D2| A,2   E2 A,2 E2 | G,2   D2 D,2D2| G,2A,2 G,2 A2|
%
[V:1] AGAB cBcd | ef (3gfe [a2d2A2] ab | {b}aged cdef | ged=f edcB |
[V:2] A,2E2C2E2 | A,2 E2    D,2     D2 | D,2 D2  A2E2 | G,2D2 D,2D2|
%
[V:1] c2Bc  AB (3cBA | BGEF G2 ed | (3cdc BA GA (3BAG | A6       :|
[V:2] A,2E,2 =F,2=F2 | G,2E,2G,2D2| C2    E2 G,2 E2   | D,2D2D,2 :|
W:
W:
W:  From Musica Viva - http://www.musicaviva.com
W:  the Internet center for free sheet music downloads.

